X:1048
T:Curragh Races, The
T:Maid in the Cherry Tree, The
R:reel
D:Catherine McEvoy, Caoimh\'in \'O Raghallaigh & M\'iche\'al \'O Raghallaigh
Z:id:hn-reel-1048
M:C|
L:1/8
K:Ador
eAcA eAcA | G2BG dGBd | eAcA eAcA | dBGA BA~A2 |
eAcA eAcA | G2BG dGBd | cBAc Bdge |1 dBGA BA~A2 :|2 dBGA BAAB ||
|: c2ec gcec | cege dBGB | c2ec gcec | dBGA BAAB |
c2ec gcec | cege dBGB | cBAc Bdge |1 dBGA BAAB :|2 dBGA BA~A2 ||

